static/assets/img/icons/theme/communication/mail-locked.svg

<svg height="24" viewBox="0 0 24 24" width="24" xmlns="http://www.w3.org/2000/svg"><g fill="none" fill-rule="evenodd"><path d="m0 0h24v24h-24z" opacity="0"/><g fill="#000"><path d="m12.9835977 18c-.257293-3.9090159-3.50947635-7-7.4835977-7-.51369876 0-1.01533509.0516454-1.5.1500272v-4.1500272c0-1.1045695.8954305-2 2-2h14c1.1045695 0 2 .8954305 2 2v9c0 1.1045695-.8954305 2-2 2zm6.1608274-11.16035332-6.1444251 3.30853662-6.14442513-3.30853662c-.36470307-.19637858-.81954962-.05992462-1.01592819.30477845-.19637858.36470307-.05992462.81954962.30477845 1.01592819l6.49999997 3.49999998c.2219823.1195289.4891675.1195289.7111498 0l6.5-3.49999998c.364703-.19637857.501157-.65122512.3047784-1.01592819s-.6512251-.50115703-1.0159282-.30477845z"/><path d="m8 17c.55228475 0 1 .4477153 1 1v3c0 .5522847-.44771525 1-1 1h-5c-.55228475 0-1-.4477153-1-1v-3c0-.5522847.44771525-1 1-1v-.5c0-1.3807119 1.11928813-2.5 2.5-2.5s2.5 1.1192881 2.5 2.5zm-2.5-2c-.82842712 0-1.5.6715729-1.5 1.5v.5h3v-.5c0-.8284271-.67157288-1.5-1.5-1.5z" opacity=".3"/></g></g></svg>

<svg width="24px" height="24px" viewBox="0 0 24 24" version="1.1" xmlns="http://www.w3.org/2000/svg" xmlns:xlink="http://www.w3.org/1999/xlink">
    <title>Icon For Mail-locked</title>
    <g stroke="none" stroke-width="1" fill="none" fill-rule="evenodd">
        <rect opacity="0" x="0" y="0" width="24" height="24"></rect>
        <path d="M12.9835977,18 C12.7263047,14.0909841 9.47412135,11 5.5,11 C4.98630124,11 4.48466491,11.0516454 4,11.1500272 L4,7 C4,5.8954305 4.8954305,5 6,5 L20,5 C21.1045695,5 22,5.8954305 22,7 L22,16 C22,17.1045695 21.1045695,18 20,18 L12.9835977,18 Z M19.1444251,6.83964668 L13,10.1481833 L6.85557487,6.83964668 C6.4908718,6.6432681 6.03602525,6.77972206 5.83964668,7.14442513 C5.6432681,7.5091282 5.77972206,7.96397475 6.14442513,8.16035332 L12.6444251,11.6603533 C12.8664074,11.7798822 13.1335926,11.7798822 13.3555749,11.6603533 L19.8555749,8.16035332 C20.2202779,7.96397475 20.3567319,7.5091282 20.1603533,7.14442513 C19.9639747,6.77972206 19.5091282,6.6432681 19.1444251,6.83964668 Z" fill="#000000"></path>
        <path d="M8,17 C8.55228475,17 9,17.4477153 9,18 L9,21 C9,21.5522847 8.55228475,22 8,22 L3,22 C2.44771525,22 2,21.5522847 2,21 L2,18 C2,17.4477153 2.44771525,17 3,17 L3,16.5 C3,15.1192881 4.11928813,14 5.5,14 C6.88071187,14 8,15.1192881 8,16.5 L8,17 Z M5.5,15 C4.67157288,15 4,15.6715729 4,16.5 L4,17 L7,17 L7,16.5 C7,15.6715729 6.32842712,15 5.5,15 Z" fill="#000000" opacity="0.3"></path>
    </g>
</svg>
